icons/svg/video-layout-single_12.svg

<svg width="12" height="12" viewBox="0 0 12 12" fill="none" xmlns="http://www.w3.org/2000/svg">
<path fill-rule="evenodd" clip-rule="evenodd" d="M10 2H2C1.44772 2 1 2.44772 1 3V9C1 9.55228 1.44772 10 2 10H10C10.5523 10 11 9.55229 11 9V3C11 2.44772 10.5523 2 10 2ZM2 1C0.895431 1 0 1.89543 0 3V9C0 10.1046 0.895431 11 2 11H10C11.1046 11 12 10.1046 12 9V3C12 1.89543 11.1046 1 10 1H2Z" fill="#121212"/>
</svg>

<?xml version="1.0" encoding="utf-8"?>
<!-- Generator: Adobe Illustrator 25.0.0, SVG Export Plug-In . SVG Version: 6.00 Build 0)  -->
<svg version="1.1" id="Layer_1" xmlns="http://www.w3.org/2000/svg" xmlns:xlink="http://www.w3.org/1999/xlink" x="0px" y="0px"
	 viewBox="0 0 12 12" style="enable-background:new 0 0 12 12;" xml:space="preserve">
<style type="text/css">
	.st0{fill-rule:evenodd;clip-rule:evenodd;fill:#121212;}
</style>
<path class="st0" d="M10,2H2C1.4,2,1,2.4,1,3v6c0,0.6,0.4,1,1,1h8c0.6,0,1-0.4,1-1V3C11,2.4,10.6,2,10,2z M2,1C0.9,1,0,1.9,0,3v6
	c0,1.1,0.9,2,2,2h8c1.1,0,2-0.9,2-2V3c0-1.1-0.9-2-2-2H2z"/>
</svg>
